X:1
T:Signor Abbate
M:4/4
L:1/4
K:G
 z B B B| c c z c| B B z B| A A z A| G G G G| F4| E4|E/2-^D/2E/2-F/2G/2-F/2G/2-E/2|\
 A2 F F| G3/2 G/2 E E| F3/2 F/2 ^D D| E3/2 E/2C/2 C/2C/2 C/2| A,2- B,2|\
 E4| zG/2-A/2 B B| B A z/2 A/2A/2 A/2| A G z/2 G/2G/2 G/2| G F z/2 F/2F/2 F/2|\
 F E e e/2e/2| e2- ^d2| e4|
